X:1
T:Title
%%score ( 1 2 ) ( 3 4 )
L:1/8
Q:1/4=107
M:9/8
K:Ab
V:1 treble nm="Grand Piano, Soprano"
V:2 treble 
V:3 bass nm="Choir Pad, Bass"
V:4 bass 
V:1
 [Ec][=D_c][E=c] [CA]3 [CE]3 | EA[DB] [CA]3 [B,G]3 | GA[D=A] [DB]3 [DE]3 | Bc[Ed] [Ec]6 | %4
w: By~William~Lesley~Mason * * * *||||
 [Ec][=D_c][E=c] [CA]3 [CE]3 | A[GB][_Gc] [Ee]3 [Fd]3 | FG[_CF] [=CE]3 [Ec]3 | BF[_DG] [CA]6 | %8
w: ||||
[M:12/8] [FA][DF][FA] [Fd]6- [Fd]3/2 z/ [Fd] | dA[=EB] [_Ec]3 [Ec]6 | %10
w: ||
 AG[EA] B2- [GB-] [GB-]2 [GB-] [G-B]>G[Ge] | eB[Gd] [Ac]6- [Ac]2- [Ac]/ z/ | %12
w: ||
 [Ac][GB][_Gc] [Fd]6- [Fd]3/2 z/ [Fd] | de[Af] [Ae]3 [Ac]6 | [Ac]A[Ac] [Ae]6- [Ae]3/2 z/ [Ae] | %15
w: |||
 z3 A3- A6- | A6 z6 |] %17
w: ||
V:2
 x9 | .C3 z3 z3 | .D3 z3 z3 | .E3 z3 z3 | x9 | x9 | ._C3 z3 z3 | .=D3 z3 z3 |[M:12/8] x12 | %9
 .F3 z3 z6 | .E3 .G3 z6 | .G3 z3 z6 | x12 | .F3 z3 z6 | x12 | [Ae]2 [DG] C2 C D2 B, C3- | C6 z6 |] %17
V:3
 [A,,A,]2 [A,,A,] [A,,A,]3 [A,,A,]3 | A,2 A, E,3 E,3 | [E,B,]2 [E,B,] [E,G,]3 [E,G,]3 | %3
 [E,G,]2 [E,G,] A,6 | [A,,A,]2 [A,,A,] [A,,A,]3 [A,,A,]3 | A,2 A, [D,A,]3 [D,A,]3 | %6
 [=D,A,]2 [D,A,] [E,A,]3 [E,A,]3 | [F,B,]2 [E,B,] [A,,A,]6 | %8
[M:12/8] z3 [D,A,]2 [D,A,] [D,A,]2 [D,A,] [D,A,]2 [D,A,] | [D,A,]2 [D,A,] A,2 A, A,2 A, A,2 A, | %10
 [A,C][B,D][A,C] [E,E]2 [E,E] [E,E]2 [E,E] [E,E]2 [E,B,] | %11
 [E,B,]2 [E,E] [A,E]2 [A,E] [A,E]2 [A,E] [A,E]3 | %12
 [A,E]2 [A,E] [D,D]2 [D,D] [D,D]2 [D,D] [D,D]2 [D,D] | %13
 [D,D]2 [D,D][K:treble] [A,C]2 [A,C] [A,E]2 [A,E] [A,E]2 [A,E] | %14
 EC[K:bass][A,E] [E,E]3 [E,E]2 [E,E] [E,E]2 [E,E] | z3 .A,3 z6 | z12 |] %17
V:4
 x9 | x9 | x9 | x9 | x9 | x9 | x9 | x9 |[M:12/8] x12 | x12 | x12 | x12 | x12 | x3[K:treble] x9 | %14
 .A,3[K:bass] z3 z6 | [E,B,]2 [E,B,] A,,2- [A,,-E,] [A,,-F,]2 [A,,-F,] [A,,E,]3- | [A,,E,]6 z6 |] %17

